src/assets/svg/play.svg

<svg height="42" viewBox="0 0 42 42" width="42" xmlns="http://www.w3.org/2000/svg"><path d="m21 3c3.2656413 0 6.27733.80467945 9.0351562 2.4140625 2.7578263 1.60938305 4.9413983 3.79295496 6.5507813 6.5507813 1.609383 2.7578262 2.4140625 5.7695149 2.4140625 9.0351562s-.8046795 6.27733-2.4140625 9.0351562c-1.609383 2.7578263-3.792955 4.9413983-6.5507813 6.5507813-2.7578262 1.609383-5.7695149 2.4140625-9.0351562 2.4140625s-6.27733-.8046795-9.0351562-2.4140625c-2.75782634-1.609383-4.94139825-3.792955-6.5507813-6.5507813-1.60938305-2.7578262-2.4140625-5.7695149-2.4140625-9.0351562s.80467945-6.27733 2.4140625-9.0351562c1.60938305-2.75782634 3.79295496-4.94139825 6.5507813-6.5507813 2.7578262-1.60938305 5.7695149-2.4140625 9.0351562-2.4140625zm9 19.2890625c.5000025-.2812514.75-.7109346.75-1.2890625s-.2499975-1.0078111-.75-1.2890625l-12.75-7.5c-.4843774-.2968765-.9843724-.3046889-1.5-.0234375-.5000025.2968765-.75.7343721-.75 1.3125v15c0 .5781279.2499975 1.0156235.75 1.3125.2500013.1250006.4999987.1875.75.1875.2656263 0 .5156238-.0703118.75-.2109375z" fill="#fff" fill-rule="evenodd"/></svg>

<?xml version="1.0" encoding="UTF-8" standalone="no"?>
<svg width="42px" height="42px" viewBox="0 0 42 42" version="1.1" xmlns="http://www.w3.org/2000/svg" xmlns:xlink="http://www.w3.org/1999/xlink" xmlns:sketch="http://www.bohemiancoding.com/sketch/ns">
    <!-- Generator: Sketch 3.5.1 (25234) - http://www.bohemiancoding.com/sketch -->
    <title>play</title>
    <desc>Created with Sketch.</desc>
    <defs></defs>
    <g id="Page-1" stroke="none" stroke-width="1" fill="none" fill-rule="evenodd" sketch:type="MSPage">
        <g id="play" sketch:type="MSArtboardGroup" fill="#FFFFFF">
            <path d="M21,3 C24.2656413,3 27.27733,3.80467945 30.0351562,5.4140625 C32.7929825,7.02344555 34.9765545,9.20701746 36.5859375,11.9648438 C38.1953205,14.72267 39,17.7343587 39,21 C39,24.2656413 38.1953205,27.27733 36.5859375,30.0351562 C34.9765545,32.7929825 32.7929825,34.9765545 30.0351562,36.5859375 C27.27733,38.1953205 24.2656413,39 21,39 C17.7343587,39 14.72267,38.1953205 11.9648438,36.5859375 C9.20701746,34.9765545 7.02344555,32.7929825 5.4140625,30.0351562 C3.80467945,27.27733 3,24.2656413 3,21 C3,17.7343587 3.80467945,14.72267 5.4140625,11.9648438 C7.02344555,9.20701746 9.20701746,7.02344555 11.9648438,5.4140625 C14.72267,3.80467945 17.7343587,3 21,3 L21,3 Z M30,22.2890625 C30.5000025,22.0078111 30.75,21.5781279 30.75,21 C30.75,20.4218721 30.5000025,19.9921889 30,19.7109375 L17.25,12.2109375 C16.7656226,11.914061 16.2656276,11.9062486 15.75,12.1875 C15.2499975,12.4843765 15,12.9218721 15,13.5 L15,28.5 C15,29.0781279 15.2499975,29.5156235 15.75,29.8125 C16.0000013,29.9375006 16.2499987,30 16.5,30 C16.7656263,30 17.0156238,29.9296882 17.25,29.7890625 L30,22.2890625 Z" id="Type-something" sketch:type="MSShapeGroup"></path>
        </g>
    </g>
</svg>
